X:367
T: NUN MF[ERK3END AUF IHR LIEBEN FREUND
N: E1548
O: Europa, Mitteleuropa, Deutschland
R: Staende -, Bauern - Lied, Lob
M: 4/4
L: 1/8
K: G
G2 | G2A2B2G2 | d3cB2
d2 | e2f2g2d2 | d3cB2
B2 | G2A2B2B2 | ABAGF2
F2 | AGFED2G2 | G3FG2

@@@ Tune index: 5051
